lock-percent-open-variant.svg

<svg fill="currentColor" viewBox="0 0 24 24"><path d="M18 1c-2.8 0-5 2.2-5 5v2H4c-1.1 0-2 .9-2 2v10c0 1.1.9 2 2 2h12c1.1 0 2-.9 2-2V10c0-1.1-.9-2-2-2h-1V6c0-1.7 1.3-3 3-3s3 1.3 3 3v2h2V6c0-2.8-2.2-5-5-5M7.5 11c.8 0 1.5.7 1.5 1.5S8.3 14 7.5 14 6 13.3 6 12.5 6.7 11 7.5 11m5 8c-.8 0-1.5-.7-1.5-1.5s.7-1.5 1.5-1.5 1.5.7 1.5 1.5-.7 1.5-1.5 1.5m-5.3.2-1.4-1.4 7.1-7.1 1.4 1.4z"/></svg>

<svg  viewBox="0 0 24 24" fill="currentColor"><path  d="M18 1C15.2 1 13 3.2 13 6V8H4C2.9 8 2 8.9 2 10V20C2 21.1 2.9 22 4 22H16C17.1 22 18 21.1 18 20V10C18 8.9 17.1 8 16 8H15V6C15 4.3 16.3 3 18 3S21 4.3 21 6V8H23V6C23 3.2 20.8 1 18 1M7.5 11C8.3 11 9 11.7 9 12.5S8.3 14 7.5 14 6 13.3 6 12.5 6.7 11 7.5 11M12.5 19C11.7 19 11 18.3 11 17.5S11.7 16 12.5 16 14 16.7 14 17.5 13.3 19 12.5 19M7.2 19.2L5.8 17.8L12.9 10.7L14.3 12.1L7.2 19.2Z"/></svg>
